!!!COM: Hugo Wolf
!!!CNT: Deutscher
!!!TXO: Deutsche 
!!!OTL: Im Fru2hling
!!!ONM: No. 13
!!!ODT: 1888/
!!!LYR: Moericke
!!!ENC: Brian Bice
!!!YOR: 65 Songs for voice and piano, International Music Compoany, 1960
!!NB: Vocal melody and text only encoded.
**kern	**silbe
*clefG2	*
*k[f#c#g#]	*
*M6/4	*
=2	=2
{2.dd	{Hier
2cc#	lieg
4b	ich
=3	=3
(4a	auf
4b)	|
4b#	dem
[2.cc#	Fru2h-
=4	=4
2cc#]	|
4g#	-lings-
2g#	-hu2-
4c#}	-gel:}
=5	=5
2r	.
4r	.
2r	.
{4g#	{die
=6	=6
2b	Wol-
4b	-ke
(4b	wird
4a#)	|
4g#	mein
=7	=7
2f##	Flu2-
4d#}	-ge',}
2r	.
{4d#	{ein
=8	=8
2cc#	Vo-
4cc#	-gel
4b	fliegt
4a#	mir
4g#	vor-
=9	=9
2.f#}	-aus.}
2r	.
{4ff#	{Ach,
=10	=10
(2.dd#	sag
2ee)	|
4a#	mir,
=11	=11
2ff#	all
[4dd#	ein-
4dd#]	|
4cc#	-zi-
4b	-ge
=12	=12
(2.dd#	Lie-
2ee	|
4ggn)	|
=13	=13
2ff#}	-be,}
4r	.
{(4dd#	{wo
4cc#)	|
4b	du
=14	=14
2dd#	bleibst,
4r	.
(4dd#	dass
4cc#)	|
4b	ich
=15	=15
2dd#	bei
4ff#	dir
[2.ff#	blie-
=16	=16
2ff#]	|
4b}	-be!}
2r	.
4r	.
=17	=17
2r	.
4r	.
2r	.
{4b	{Doch
=18	=18
2.b	du
2b	und
4b	die
=19	=19
2.dd	Lu2f-
2.f#	-te,
=20	=20
4r	.
[2a	ihr
4a]	|
4g#	habt
4f#	kein
=21	=21
[1.c#	Haus.
=22	=22
2c#]}	|}
4r	.
2r	.
4r	.
=23	=23
2r	.
4r	.
2r	.
{4f#	{Der
=24	=24
2dd#	Son-
4dd#	-nen-
2ddn	-blu-
4cc#	-me
=25	=25
2b	gleich
[4dd	steht
4dd]	|
4f#	mein
4gn	Ge-
=26	=26
2e	-mu2-
4a	-te
2a	of-
4d}	-fen,}
=28	=28
2r	.
{([4ccn	{seh-
4ccn]	|
4b)	|
4a#}	-nend,}
=29	=29
2r	.
4r	.
2r	.
{4ee	{sich
=30	=30
*k[]	*
[2.ff	deh-
4ff]	|
4ee	-nend
4dd#	in
=31	=31
[1.g	Lie-
=32	=32
2.g]	|
2b	-ben
4dd	und
=33	=33
[1.gg	Hof-
=34	=34
2gg]	|
4a#}	-fen.}
2r	.
4r	.
=35	=35
2r	.
{[4gg	{Fru2h-
2gg]	|
4ee	-ling,
=36	=36
4r	.
2ee	was
4ee	bist
4dd	du
4cc	ge-
=37	=37
2.ee}	-willt?}
2r	.
4r	.
=38	=38
4r	.
{2ee	{wann
4ee	werd
4dd	ich
4cc	ge-
=39	=39
[2.a-	-stillt?
2a-]}	|}
4r	.
=43	=43
*k[f#c#g#d#]	*
2r	.
{4f#	{Die
[2.a	Wol-
=44	=44
2a]	|
4a	-ke
(4a	seh
4b)	|
4cc#	ich
=45	=45
[1.f#	wan-
=46	=46
2f#]	|
4f#	-deln
2g#	und
4a	den
=47	=47
[2.b	Fluss,
2b]}	|}
4r	.
=48	=48
2r	.
{4cc#	{es
[2.cc#	dringt
=49	=49
2cc#]	|
4cc#	der
[2.ddn	Son-
=50	=50
2ddn]	|
4ddn	-ne
2cc#	gold-
4g#	-ner
=51	=51
2cc#	Kuss
4cc#	mir
2ee	tief
[4ee	bis
=52	=52
4ee]	|
4dd#	ins
4cc#	Ge-
2b	-blu2t
4f#	hin-
=53	=53
2.b}	-ein;}
2r	.
4r	.
=54	=54
2r	.
{4e	{die
[2.e	Au-
=55	=55
2e]	|
4e	-gen,
[2.a	wun-
=56	=56
2a]	|
4f#	-der-
2d#	-bar
4b	be-
=57	=57
2b	-rau-
4e	-schet,
2.ee}	tun,}
=59	=59
2r	.
{4e	{als
4gn	schlief-
4f#	-en
4e	sie
=60	=60
1.cn}	ein,}
=62	=62
{4B	{nur
4e	noch
4f#	das
[2.gn	Ohr
=63	=63
2gn]	|
4gn	dem
2gn	Ton
4gn	der
=64	=64
2f#	Bie-
4b	-ne
[2.f#	lau-
=65	=65
2.f#_	|
2f#]	|
4f#}	-schet.}
=73	=73
*k[f#c#g#]	*
2r	.
4r	.
2r	.
{4b	{Ich
=74	=74
(4a	den-
4g#)	|
4f#	-ke
[2.g#	dies
=75	=75
2g#]	|
4g#	und
2g#	den-
4g#	-ke
=76	=76
[2.e#	das,
2e#]}	|}
4r	.
=77	=77
2r	.
{4g##	{ich
(4b	seh-
4a#)	|
4g#	-ne
=78	=78
2.f##	mich,
2r	.
4f##	und
=79	=79
2cc#	weiss
4cc#	nicht
(4b	recht,
4a#)	|
4g#	nach
=80	=80
2.b}	was:}
2r	.
4r	.
=81	=81
{2.b#	{halb
2cc#	ist
4cc##	es
=82	=82
(d#q	Lust,
[2.ff#)	|
2ff#]}	|}
4r	.
=83	=83
{2.dd#	{halb
2ee	ist
4ggn	es
=84	=84
2ff#	Kla-
4dd#}	-ge;}
2r	.
{4dd#	{mein
=85	=85
([2.dd#	Herz,
4dd#]	|
4cc#)	|
4b	o
=86	=86
2dd#	sa-
4b}	-ge,}
2r	.
{4b	{was
=87	=87
2b	webst
4b	du
2b	fu2r
4b	Er-
=88	=88
2b	-in-
4ddn	-ner-
2ddn	-ung
4b	in
=89	=89
2b	gol-
4b	-den
2b	gru2-
4dd	-ner
=90	=90
2dd	Zwei-
4f#	-ge
[2.a	Da2m-
=91	=91
1.a_	|
=92	=92
2a]	|
4cc#	-mer-
2.cc#}	-ung?}
=95	=95
{2.b#	{Al-
2.f#	-te
=96	=96
2a	un-
[4a	-nenn-
4a]	|
4g#	-ba-
4f#	-re
=97	=97
([2e#	Ta-
8e#]	|
8g#)	|
[2.g#	-ge!
=98	=98
2g#]}	|}
4r	.
2r;	.
4r	.
*-	*-
